packages/axiom-materials/src/icon_svgs/flip-vertical.svg

<svg height="16" viewBox="0 0 16 16" width="16" xmlns="http://www.w3.org/2000/svg"><path d="m6.5 8.5-5 4.0412598v-8.08251957zm3 0 5-4.04125977v8.08251957zm-2-6.5h1v12h-1z" fill-rule="evenodd" transform="matrix(0 1 -1 0 16 0)"/></svg>

<?xml version="1.0" encoding="UTF-8"?>
<svg width="16px" height="16px" viewBox="0 0 16 16" version="1.1" xmlns="http://www.w3.org/2000/svg" xmlns:xlink="http://www.w3.org/1999/xlink">
    <!-- Generator: sketchtool 43.2 (39069) - http://www.bohemiancoding.com/sketch -->
    <title>flip-vertical</title>
    <desc>Created with sketchtool.</desc>
    <defs></defs>
    <g id="Page-1" stroke="none" stroke-width="1" fill="none" fill-rule="evenodd">
        <g id="flip-vertical" fill="#000000">
            <path d="M6.5,8.5 L1.5,12.5412598 L1.5,4.45874023 L6.5,8.5 Z M9.5,8.5 L14.5,4.45874023 L14.5,12.5412598 L9.5,8.5 Z M7.5,2 L8.5,2 L8.5,14 L7.5,14 L7.5,2 Z" id="Mask" transform="translate(8.000000, 8.000000) rotate(90.000000) translate(-8.000000, -8.000000) "></path>
        </g>
    </g>
</svg>
